!!!SOCIAL_FUNCTION:	songs connected with the treatment of the sick
!!!PDT:	1932
!!!OTL: No_67_Healing_Song_from_the_Spirit_Women_(a).krn
!!!REG: Wisconsin
!!!LANG: Non-Tone
!!!LING_GROUP: Algonquin
**kern
*staff1
=1-
*clefF4
*k[f#c#]
*M3/4
2r
8r
16r
16B\
=2
8.B\L
16A\Jk
4A\
16F#\
16r
16A\LL
16A\JJ
=3||
*M2/4
8.A\L
16F#\Jk
8.F#\L
16E\Jk
=4
4E\
8r
16F#\LL
16E\JJ
=5||
*M3/4
8.E\L
16D\Jk
4BB/
16BB/
16r
16A\LL
16A\JJ
=6||
*M2/4
8.A\L
16F#\Jk
8.F#\L
16E\Jk
=7||
*M3/4
4E\
4E\
8r
16G\LL
16E\JJ
=8
8.E\L
16D\Jk
4BB/
16BB/
16r
16BB/LL
16BB/JJ
=9
4BB/
4AA/
4FF#/
==
*-
